X:17
T:Ayacucho
R:waynu
O:Peru
Z:id:hn-waynu-17
M:2/4
L:1/8
Q:1/4=90
K:Em
[M:2/4] G/A/B/d/ B/d/B/d/ |[M:3/4] e/g/e/d/ d/BA/ B2 |
[M:2/4] G/A/B/d/ B/d/B/d/ |[M:3/4] e/g/e/d/ d/B/A/G/ E2 :|
|:[M:2/4] ge/ed/g | e/dde/d/B/ | B/A/G/E/ G2 |
g3/ed/g | e/dde/d/B/ | B/A/G/E/ E2 :|

